markets/OIL.svg

<svg width="43" height="42" viewBox="0 0 43 42" fill="none" xmlns="http://www.w3.org/2000/svg">
<path d="M42.6 21C42.6 32.598 33.198 42 21.6 42C10.0021 42 0.600037 32.598 0.600037 21C0.600037 9.40202 10.0021 0 21.6 0C33.198 0 42.6 9.40202 42.6 21Z" fill="white"/>
<path d="M42.6 21C42.6 32.598 33.198 42 21.6 42C10.0021 42 0.600037 32.598 0.600037 21C0.600037 9.40202 10.0021 0 21.6 0C33.198 0 42.6 9.40202 42.6 21Z" fill="#06061B"/>
<path d="M18.55 30.9894C18.5978 31.0296 18.5575 31.1056 18.4984 31.0854C16.5593 30.4209 15.1663 28.6059 15.1663 26.4371C15.1663 25.9154 15.5433 24.9049 15.7898 24.2998C15.8156 24.2364 15.9101 24.2659 15.8985 24.3333C15.8509 24.6099 15.8043 24.9327 15.8043 25.136C15.8046 27.4702 16.8743 29.5753 18.55 30.9894ZM29.2328 25.9666C29.2328 22.0236 23.534 16.3052 21.8517 8.31984C21.7963 8.0567 21.299 8.0567 21.2436 8.31983C19.5613 16.3047 13.8626 22.0235 13.8626 25.9666C13.8626 30.202 17.3029 33.6346 21.5477 33.6346C25.7925 33.6346 29.2328 30.2018 29.2328 25.9666Z" fill="white"/>
</svg>

<svg xmlns="http://www.w3.org/2000/svg" width="43" height="42" fill="none"><path fill="#fff" d="M42.6 21c0 11.598-9.402 21-21 21S.6 32.598.6 21s9.402-21 21-21 21 9.402 21 21Z"/><path fill="#06061B" d="M42.6 21c0 11.598-9.402 21-21 21S.6 32.598.6 21s9.402-21 21-21 21 9.402 21 21Z"/><path fill="#fff" d="M18.55 30.99c.048.04.008.116-.052.095a4.905 4.905 0 0 1-3.332-4.648c0-.522.377-1.532.624-2.137.026-.064.12-.034.109.033a5.6 5.6 0 0 0-.095.803c0 2.334 1.07 4.44 2.746 5.853Zm10.683-5.023c0-3.943-5.699-9.662-7.381-17.647-.056-.263-.553-.263-.608 0-1.683 7.985-7.381 13.703-7.381 17.647 0 4.235 3.44 7.668 7.685 7.668 4.245 0 7.685-3.433 7.685-7.668Z"/></svg>
